X: 5105
T: Bridge Of Bamore, The
R: reel
M: 4/4
K: Amajor
|:A,3f edcB|AF F/F/F F2EF|A,3f edcA|1 BcdB cAAB,:|2 BcdB cAAg||
aece aecB|AF F/F/F F2Ee|aece fbec|BABc A/A/A Ag|
af=ge fdec|BF F/F/F F2EF|A,3f edcA|BcdB cAA2||

